src/assets/img/providers/gamebeat.svg

<svg width="132" height="18" viewBox="0 0 132 18" fill="none" xmlns="http://www.w3.org/2000/svg">
<g clip-path="url(#clip0_4132_7149)">
<path fill-rule="evenodd" clip-rule="evenodd" d="M15.4401 10.0746V8.02203H7.96316V10.9905H11.9447C11.8839 13.201 10.6986 14.7799 8.11513 14.7799C5.07575 14.7799 3.58646 12.2536 3.58646 8.96943C3.58646 5.68519 5.10615 3.22203 8.08473 3.22203C9.87797 3.22203 10.9721 3.97993 11.3368 5.27466H14.9841C14.3155 2.08519 11.9144 0.000976562 8.08473 0.000976562C2.85701 0.000976562 0 3.79045 0 9.03252C0 14.2746 2.85701 18.001 8.11513 18.001C13.3732 18.001 15.4401 14.0852 15.4401 10.0746ZM21.3357 13.0113H27.688L29.0557 17.685H32.6118L27.2625 0.316546H21.8524L16.5335 17.685H19.9376L21.3357 13.0113ZM26.7762 9.85341H22.2172L23.9495 3.82181H25.0133L26.7762 9.85341ZM34.4051 0.316546H39.6936L42.4291 7.32707H43.0369L45.7724 0.316546H51.1824V17.685H47.9303V4.7376H47.3224L44.5262 11.7481H41.0309L38.2651 4.7376H37.6572V17.685H34.4051V0.316546ZM62.9149 17.685L63.4316 14.4639V14.4323H57.9607V10.3271H64.1306L64.6777 7.16918H57.9607V3.5376H65.2248L65.8327 0.316546H54.4654V17.685H62.9149ZM77.2911 8.93798C78.446 9.63269 79.1754 10.8959 79.1451 12.3169C79.1451 15.9485 76.288 17.6537 73.0967 17.6537H65.8326L68.7504 0.253767H75.3762C77.747 0.253767 79.9049 1.61166 79.9049 4.23272C79.9352 6.00113 78.9323 7.67482 77.3518 8.40114L77.2911 8.93798ZM72.9143 16.2011V16.2643C75.4543 16.2553 77.6253 15.1162 77.6253 12.2854C77.6253 10.138 75.8018 9.31692 73.9781 9.31692H68.8416L67.6866 16.2011H72.9143ZM69.0847 7.89587H74.2516C76.5008 7.89587 78.4156 7.01166 78.4156 4.45377C78.4156 2.59061 76.8351 1.83272 75.285 1.83272H70.1485L69.0847 7.89587ZM87.1089 17.7484L87.8383 16.2642H82.3678L83.5531 9.41155H91.2729L92.0023 7.9273H83.7963L84.8601 1.83256H95.1335L95.8629 0.348354H83.5228L80.605 17.7484H87.1089ZM104.981 17.685H103.37L102.428 12.0955H94.89L92.0632 17.685H90.3918L99.1449 0.316546H102.003L104.981 17.685ZM95.5895 10.6113H102.154L100.725 2.02181H99.8443L95.5895 10.6113ZM112.456 1.76978H117.988L118.232 0.285575H105.618L105.405 1.76978H110.937L108.231 17.6855H109.751L112.456 1.76978Z" fill="#919EAB"/>
<path d="M128.991 17.6848H119.903L122.912 0.316406H132L128.991 17.6848Z" fill="url(#paint0_linear_4132_7149)"/>
<path d="M124.22 17.6848H115.131L118.232 0.316406H127.32L124.22 17.6848Z" fill="url(#paint1_linear_4132_7149)"/>
</g>
<defs>
<linearGradient id="paint0_linear_4132_7149" x1="125.957" y1="17.8421" x2="125.957" y2="1.67083" gradientUnits="userSpaceOnUse">
<stop offset="0.2" stop-color="#919EAB" stop-opacity="0"/>
<stop offset="1" stop-color="#919EAB"/>
</linearGradient>
<linearGradient id="paint1_linear_4132_7149" x1="121.235" y1="0.244406" x2="121.235" y2="18.6183" gradientUnits="userSpaceOnUse">
<stop offset="0.2" stop-color="#919EAB" stop-opacity="0"/>
<stop offset="1" stop-color="#919EAB"/>
</linearGradient>
<clipPath id="clip0_4132_7149">
<rect width="132" height="18" fill="white" transform="translate(0 0.000976562)"/>
</clipPath>
</defs>
</svg>

<svg width="132" height="18" fill="none" xmlns="http://www.w3.org/2000/svg"><g clip-path="url(#a)"><path fill-rule="evenodd" clip-rule="evenodd" d="M15.44 10.075V8.022H7.963v2.969h3.982c-.061 2.21-1.246 3.789-3.83 3.789-3.04 0-4.529-2.526-4.529-5.81 0-3.285 1.52-5.748 4.499-5.748 1.793 0 2.887.758 3.252 2.053h3.647C14.316 2.085 11.914 0 8.084 0 2.858.001 0 3.791 0 9.033S2.857 18 8.115 18s7.325-3.916 7.325-7.926Zm5.896 2.936h6.352l1.368 4.674h3.556L27.262.317h-5.41l-5.319 17.368h3.405l1.398-4.674Zm5.44-3.158h-4.559l1.733-6.031h1.063l1.763 6.031Zm7.63-9.536h5.288l2.735 7.01h.608l2.735-7.01h5.41v17.368H47.93V4.738h-.608l-2.796 7.01h-3.495l-2.766-7.01h-.608v12.947h-3.252V.317Zm28.509 17.368.517-3.221v-.032H57.96v-4.105h6.17l.547-3.158H57.96V3.538h7.264l.608-3.221H54.465v17.368h8.45ZM77.29 8.938a3.826 3.826 0 0 1 1.854 3.379c0 3.631-2.857 5.337-6.048 5.337h-7.264L68.75.254h6.626c2.371 0 4.529 1.358 4.529 3.979.03 1.768-.973 3.442-2.553 4.168l-.06.537Zm-4.377 7.263v.063c2.54-.009 4.711-1.148 4.711-3.979 0-2.147-1.823-2.968-3.647-2.968h-5.136L67.687 16.2h5.227Zm-3.83-8.305h5.168c2.249 0 4.164-.884 4.164-3.442 0-1.863-1.58-2.621-3.131-2.621h-5.136l-1.064 6.063Zm18.025 9.852.73-1.484h-5.471l1.185-6.852h7.72l.73-1.485h-8.207l1.064-6.094h10.273l.73-1.485h-12.34l-2.918 17.4h6.504Zm17.872-.063h-1.611l-.942-5.59H94.89l-2.827 5.59h-1.671L99.145.317h2.858l2.978 17.368Zm-9.391-7.074h6.564l-1.429-8.59h-.88l-4.255 8.59Zm16.866-8.841h5.532l.244-1.484h-12.614l-.213 1.484h5.532l-2.706 15.915h1.52l2.705-15.915Z" fill="#919EAB"/><path d="M128.991 17.685h-9.088L122.912.316H132l-3.009 17.369Z" fill="url(#b)"/><path d="M124.22 17.685h-9.089L118.232.316h9.088l-3.1 17.369Z" fill="url(#c)"/></g><defs><linearGradient id="b" x1="125.957" y1="17.842" x2="125.957" y2="1.671" gradientUnits="userSpaceOnUse"><stop offset=".2" stop-color="#919EAB" stop-opacity="0"/><stop offset="1" stop-color="#919EAB"/></linearGradient><linearGradient id="c" x1="121.235" y1=".244" x2="121.235" y2="18.618" gradientUnits="userSpaceOnUse"><stop offset=".2" stop-color="#919EAB" stop-opacity="0"/><stop offset="1" stop-color="#919EAB"/></linearGradient><clipPath id="a"><path fill="#fff" transform="translate(0 .001)" d="M0 0h132v18H0z"/></clipPath></defs></svg>
